X:187
T:Horizonto
C:Paul James
R:jig
M:6/8
L:1/8
K:Bmin
fgf efd | ecd BcA | F2F Bcd | c2c ABc |
d2d ded | cBc ABc | dcB cBA | F^GA B3 :|
G2G Bcd | G2G Bcd | F2F Bcd |F2F Bcd|
G2G Bcd | G2G Bcd | fgf efd | ecd BcA |
G2G Bcd | G2G Bcd | F2F Bcd | F2F Bcd |
G2G Bcd | G2G Bcd | ^G2G Bcd | ^G2G Bcd |
g2f2ed | c3 cde | f2e2dc | B3 Bcd|
e2d2cB | ^A3 ABc | d2e2^e2 | f3 fef|
g2a2g2 | c3 cde | f2g2f2 | B3 Bcd|
e2d2cB | ^A3 ABc| d2 B2 A2 | B2 Z4 |]
